flags/ph.svg

<svg viewBox="0 0 180 90" xmlns="http://www.w3.org/2000/svg" xmlns:xlink="http://www.w3.org/1999/xlink"><path d="m0 0h180v90h-180z" fill="#0038a8"/><path d="m0 45h180v45h-180z" fill="#ce1126"/><path d="m77.942286 45-77.942286 45v-90" fill="#fff"/><g fill="#fcd116" transform="translate(28 45)"><circle r="9"/><g id="a"><g id="b"><g id="c"><path d="m-1 0 .06151177.06151177.93848823-.06151177-.93848823-.06151177z" transform="scale(19)"/><path id="d" d="m-.88366349.11633651.04957417.04957417.83408932-.16591068z" transform="scale(19.238092)"/><use transform="scale(1 -1)" xlink:href="#d"/></g><use transform="matrix(.70710678 .70710678 -.70710678 .70710678 0 0)" xlink:href="#c"/></g><use transform="rotate(90)" xlink:href="#b"/></g><use transform="scale(-1)" xlink:href="#a"/><g transform="translate(-2.019238)"><g id="e" transform="translate(37.961524)"><path id="f" d="m5 0-3.381966 1.175571-.072949 3.579712-2.163119-2.85317-3.427051 1.036813 2.045085-2.938926z"/><use transform="scale(1 -1)" xlink:href="#f"/></g><use transform="matrix(-.5 .8660254 -.8660254 -.5 0 0)" xlink:href="#e"/><use transform="matrix(-.5 -.8660254 .8660254 -.5 0 0)" xlink:href="#e"/></g></g></svg>

<svg xmlns="http://www.w3.org/2000/svg" xmlns:xlink="http://www.w3.org/1999/xlink" viewBox="0 0 180 90">
<title>Flag of the Philippines</title>
<desc>Coding according to the official "description and specification of the FILIPINO flag" in Executive Order No. 23 from 1936</desc>
<rect width="180" height="90" fill="#0038a8"/>
<rect y="45" width="180" height="45" fill="#ce1126"/>
<path d="M 77.942286,45 0,90 0,0" fill="#fff"/>
<g transform="translate(28,45)" fill="#fcd116">
<circle r="9"/>
<g id="j">
<g id="i">
<g id="h">
<path d="M -1,0 L -0.93848823,0.06151177 L 0,0 L -0.93848823,-0.06151177 z" transform="scale(19)"/>
<path id="g" d="M -0.88366349,0.11633651 L -0.83408932,0.16591068 L 0,0 z" transform="scale(19.238092)"/>
<use xlink:href="#g" transform="scale(1,-1)"/>
</g>
<use xlink:href="#h" transform="rotate(45)"/>
</g>
<use xlink:href="#i" transform="rotate(90)"/>
</g>
<use xlink:href="#j" transform="rotate(180)"/>
<g transform="translate(-2.019238)">
<g id="s" transform="translate(37.961524,0)">
<path id="t" d="M 5,0 L 1.618034,1.175571 1.545085,4.755283 -0.618034,1.902113 -4.045085,2.938926 -2,0 z"/>
<use xlink:href="#t" transform="scale(1,-1)"/>
</g>
<use xlink:href="#s" transform="rotate(120)"/>
<use xlink:href="#s" transform="rotate(-120)"/>
</g>
</g>
</svg>
